!!!!SEGMENT: pl-kc--40102-iii-1-saf--002-007_zielenski-mikolaj--communiones-totius-anni-in-festo-s-andraeae-apostoli-venite-post-me.krn
!!!cenid: 16xx:1538
!!!COM: Zieleński, Mikołaj
!!!COM-rismID: pe30013481
!!!CDT: <1611->1611
!!!CNT: Polish
!!!GTL: Communiones totius anni
!!!OTL: In festo S. Andraeae Apostoli/Venite post me
!!!OMV: 007
!!!PDT: 1611
!!!AGN:
!!!SMS-siglum: PL-Kc
!!!SMS-shelfmark: 40102 III/1 Saf.
!!!SMS-shelfwork: 002-007 G
!!!SMS-variant:
!!!SMS-altvar:
!!!NIFC-rismSourceID: 990069887
!!!NIFC-rismChildID: 990069887
!!!NIFC-islandoraID: none
!!!URL-pdf-islandora:
!!!URL-scan: https://cyfrowe.mnk.pl/dlibra/publication/24235/edition/23926/content?ref=desc @EN{Scan on The National Museum in Krakow Website} @PL{Skany w portalu Biblioteka Cyfrowa Muzeum Narodowego w Krakowie}
!!!ONB-nifc: UWAGA: str. 49. Uwaga: W xml metrum 2/1 do źródłowego C| i odpowiednio 3/1 do 3/2
!!!AIN: 4 organ
!!!key: d:dor
**kern	**kern	**kern	**kern
*group1	*group1	*group1	*group1
*part4	*part3	*part2	*part1
*staff4	*staff3	*staff2	*staff1
*I""Organo	*I	*I	*
*Iorgan	*Iorgan	*Iorgan	*Iorgan
*ICklav	*ICklav	*ICklav	*ICklav
*clefC4	*clefC3	*clefC2	*clefG2
*k[]	*k[]	*k[]	*k[]
*d:dor	*d:dor	*d:dor	*d:dor
*M2/1	*M2/1	*M2/1	*M2/1
*met(C|)	*met(C|)	*met(C|)	*met(C|)
=1	=1	=1	=1
!	!	!LO:TX:a:t=Venite poſt me.	!LO:TX:a:t=7. In feſto S.Andraeae Apoſtoli. Solus|Baſsus canet.
00r	1.d	00r	1r
.	.	.	1.dd
.	2G/	.	.
=2-	=2-	=2-	=2-
.	2G/	.	.
.	1c	.	2g/
.	.	.	1.g
.	2B/	.	.
=3	=3	=3	=3
00r	2c/	1r	.
.	4A/	.	1cc
.	4B/	.	.
.	4c/	1.g	.
.	4d\	.	.
.	4e\	.	2b/
.	4d\	.	.
=4-	=4-	=4-	=4-
.	4c/	.	2.ee\
.	4B/	.	.
.	1A	2c/	.
.	.	.	4dd\
.	.	2c/	4cc\
.	.	.	4b/
.	4F/	[<2f\	[<2a/
.	4G/	.	.
=5	=5	=5	=5
1r	4A/	2f\]	2a/]
.	4B/	.	.
.	1c	2e/	2.g/
1.G	.	1.d	.
.	.	.	4a/
.	4B/	.	4b/
.	4A/	.	4cc\
=6-	=6-	=6-	=6-
.	2B/	.	4dd\
.	.	.	4g/
2C/	4e\	1g	4cc\
.	4d\	.	4dd\
1C	4c/	.	4ee\
.	4B/	.	4dd\
.	2A/	[<2c/	4ee\
.	.	.	4ff\
=7	=7	=7	=7
1r	1G	2c/]	2.gg\
.	.	2B/	.
.	.	.	4ff\
1.c	2.A/	2c/	4ee\
.	.	.	4dd\
.	.	1cc\	1ee\
.	4B/	.	.
=8-	=8-	=8-	=8-
.	2c/	.	.
2G/	2d\	4b\	4dd\
.	.	4a\	4cc\
1G	2.d\	2g\	4b/
.	.	.	4g/
.	.	2b\	[<2gg\
.	4e\	.	.
=9	=9	=9	=9
2r	4f\	2a\	2gg\]
.	4g\	.	.
1d	1a	2.dd\	4ff\
.	.	.	4ee\
.	.	.	4ff\
.	.	4dd\	4dd\
2A/	2a\	4cc\	4ee\
.	.	4b\	4dd\
=10-	=10-	=10-	=10-
2A/	2e\	4a\	4cc\
.	.	4b\	4b/
2F/	1f	4cc\	4a/
.	.	4b\	4g/
2F/	.	4a\	2a/
.	.	4g\	.
!LO:SIC:v:s:t=4D/	!	!	!
4E/	2f\	2a\	[y2dd\
4D/	.	.	.
=11	=11	=11	=11
!	!	!	!LO:N:xstem:cue
1A	2e\	2a\	4dd]
.	.	.	4cc\
.	4d\	2f#X\	2.cc\
.	4c/	.	.
1G	1d	1g	.
.	.	.	8b/
.	.	.	8a/
.	.	.	2b/
=12-	=12-	=12-	=12-
1C	2e\	1.g	2cc\
.	2.c/	.	1gg
2r	.	.	.
.	8B/	.	.
.	8A/	.	.
[>2G/	4B/	2d/	2gg\
.	4c/	.	.
=13	=13	=13	=13
2G/]	2d\	2B/	2dd\
2G/	4c/	2g\	2dd\
.	4B/	.	.
!	!LO:TX:t=P:problem=niepotrzebna pauza	!	!
2D/	2A/	2a\	1.ff
2D/	2d\	4f\	.
.	.	4g\	.
=14-	=14-	=14-	=14-
2.F/	2c/	4a\	.
.	.	4g\	.
.	2f\	4a\	2.cc\
4G/	.	4b\	.
4A/	1e	2cc\	.
4B\	.	.	4dd\
2c\	.	[<2g\	4ee\
.	.	.	4cc\
=15	=15	=15	=15
2B\	2d\	2g\]	2.dd\
1d	1f	1a	.
.	.	.	8cc\
.	.	.	8b\
.	.	.	4a/
.	.	.	4g/
!	!	!LO:SIC:v:s:t=2d/	!
2d\	2f\	2e/	4a/
.	.	.	4b/
=16-	=16-	=16-	=16-
2A/	2e\	1.a	4cc\
.	.	.	4dd\
2A/	4c/	.	4ee\
.	4d\	.	4ff\
2.c\	4e\	.	2.ee\
.	4f\	.	.
.	4g\	[<2g\	.
4B\	4d\	.	4dd\
=17	=17	=17	=17
2A/	2e\	2g\]	4cc\
.	.	.	4b/
2A/	4d\	2f\	2cc\
.	4c/	.	.
1G	2.d\	2g\	2b/
.	.	2b\	2gg\
.	4G/	.	.
=18-	=18-	=18-	=18-
1r	2d\	2a\	2ff#X\
.	2G/	2b\	2.gg\
2r	2.c/	2cc\	.
.	.	.	4ffny\
4r	.	[<2g\	4ee\
4c\	4e\	.	8dd\
.	.	.	8cc\
=19	=19	=19	=19
2B\	2d\	2g\]	2dd\
2c\	2.e\	2.g\	2cc\
2r	.	.	2b/
.	4d\	4f\	.
2A/	4c/	2e/	1cc\
.	4B/	.	.
=20-	=20-	=20-	=20-
2F/	2A/	2a\	.
2G/	2d\	2.g\	2b/
1r	1d	.	1a
.	.	8f#X\	.
.	.	8e\	.
.	.	2f#X\	.
*custos:G	*custos:G	*custos:g	*custos:b
!LO:LB:g=original	!LO:LB:g=original	!LO:LB:g=original	!LO:LB:g=original
=21	=21	=21	=21
2r	2.G/	0g	2b/
4r	.	.	2dd\
4G/	4B/	.	.
2E/	4c/	.	2ee\
.	4B/	.	.
!LO:SIC:v:s:t=4C/	!	!	!
4D/	2.e\	.	2.gg\
4C/	.	.	.
=22-	=22-	=22-	=22-
1.G	.	1.g	.
.	4d\	.	4ee\
.	2.c/	.	2ee\
.	.	.	1dd
.	8B/	.	.
.	8A/	.	.
2G/	2B/	2d/	.
=23	=23	=23	=23
2.C/	2c/	2e/	1cc
.	2e\	2g\	.
4c\	.	.	.
4B\	4d\	4g\	1r
4c\	4e\	4g\	.
4A/	4c/	4f\	.
4B\	4d\	4f\	.
=24-	=24-	=24-	=24-
1B	2.e\	2.e/	2r
.	.	.	2gg\
.	4c/	4e/	.
1r	4d\	4a\	4ff#X\
.	4B/	4d/	4gg\
.	4c/	4g\	4ee\
.	4A/	4a\	4ff#\
=25	=25	=25	=25
2r	2G/	2b\	2gg\
4r	2A/	4.a\	2cc\
4F/	.	.	.
.	.	8a\	.
4E/	4c/	4g\	0r
4F/	4c/	4f\	.
!	!	!LO:N:vis=4	!
4D/	4d\	2g\	.
4E/	8c/	.	.
.	8B/	.	.
=26-	=26-	=26-	=26-
2.F/	4A/	1a	.
.	4B/	.	.
.	4c/	.	.
4F/	4d\	.	.
4C/	2.e\	2.g\	2r
2C/	.	.	.
.	.	.	2.ee\
[<4c\	[<4e\	4g\	.
=27	=27	=27	=27
4c\]	4e\]	4.a\	.
4A/	4f\	.	4cc\
.	.	8a\	.
4B\	4d\	4f#X\	4dd\
4G/	4e\	4g\	4b/
4A/	4c/	4e/	4cc\
4F/	2d\	4a\	4b/
!	!	!	!LO:N:vis=4
2G/	.	4.g\	2cc\
.	4e\	.	.
.	.	8g\	.
=28-	=28-	=28-	=28-
2d\	4f#X\	4a\	1dd
.	2g\	4b\	.
2D/	.	2a\	.
.	4f#X\	.	.
1G	2.g\	2.b\	2r
.	.	.	2dd\
.	4g\	4b\	.
=29	=29	=29	=29
0r	4e\	4cc\	4ee\
.	4d\	4dd\	4ff\
.	2.c/	4ee\	2.gg\
.	.	8e\	.
.	.	8f\	.
.	.	8g\	.
.	.	8a\	.
.	4B/	4b\	4dd\
.	4c/	2a\	4ee\
.	4d\	.	4ff\
=30-	=30-	=30-	=30-
4r	4.e\	4g\	4.gg\
4G/	.	4b\	.
.	8e\	.	8gg\
4A/	4c/	4cc\	2ff\
4B\	4d\	8b\	.
.	.	8a\	.
4.c\	4.e\	4.g\	4ee\
.	.	.	4gg\
8G/	8e\	8b\	.
4A/	4c/	4cc\	2ff\
4B\	4d\	8b\	.
.	.	8a\	.
=31	=31	=31	=31
2c\	2e\	1g	2ee\
2.G/	2B/	.	4dd\
.	.	.	4cc\
.	2d\	[<1g	2b/
4F/	.	.	.
4E/	[2G/	.	[<2ee\
4D/	.	.	.
=32	=32	=32	=32
2C/	2G/]	2g\]	4ee\]
.	.	.	8dd\
.	.	.	8cc\
2E/	2G/	2.g\	4b\
.	.	.	4cc\
1D	2A/	.	2dd\
.	.	8f#X\	.
.	.	8e\	.
.	2d\	2f#\	2a/
=33	=33	=33	=33
0r	4G/	4g\	2b/
.	4B/	4d/	.
.	4c/	4e/	2r
.	4d\	4f#X\	.
.	4e\	4.g\	1r
.	4c/	.	.
.	.	8e\	.
.	4d\	4f#X\	.
.	4B/	4g\	.
=34-	=34-	=34-	=34-
1r	2A/	4a\	4r
.	.	4f#X\	4a/
.	2r	4g\	4b/
.	.	4e/	4cc#X\
4r	4r	4.d/	4.dd\
4D/	4A/	.	.
.	.	8f#X\	8dd\
4E/	2e\	4g\	2cc#\
4F#X/	.	4a\	.
=35	=35	=35	=35
4.G/	4.d\	4.g\	4b/
.	.	.	4dd\
8D/	8f\	8a\	.
4E/	2e\	4g\	2cc\
4F#X/	.	4a\	.
*custos:G	*custos:d	*custos:g	*custos:b
!LO:LB:g=original	!LO:LB:g=original	!LO:LB:g=original	!LO:LB:g=original
2G/	4.d\	4.g\	4b/
.	.	.	4gg\
.	8e\	8g\	.
2r	4d\	4a\	4ff\
.	4c/	4cc\	4ee\
=36-	=36-	=36-	=36-
4r	4g\	4b\	4.dd\
4d\	4f\	4a\	.
.	.	.	8ff\
4c\	4g\	4cc\	4ee\
4B\	4c/	4g\	4dd\
2A/	2.e\	2a\	4cc\
.	.	.	4dd\
2c\	.	[<2g\	4ee\
.	4e\	.	4cc\
=37	=37	=37	=37
2G/	2B/	2g\]	4dd\
.	.	.	4ee\
2D/	2.d\	1a	2.ff\
2.F/	.	.	.
.	4c/	.	4ee\
.	2f\	2a\	2.dd\
4G/	.	.	.
=38-	=38-	=38-	=38-
2A/	1e	1a	.
.	.	.	8cc#X\
.	.	.	8b\
2AA/	.	.	2cc#\
2D/	2.f#X\	2.a\	2.dd\
[y2d\	.	.	.
.	4g\	4g\	8ccny\
.	.	.	8b\
=39	=39	=39	=39
!LO:N:xstem:cue	!	!	!
4d]	2a\	2f#X\	2a/
4c\	.	.	.
4B\	1d	1g	2.dd\
4A/	.	.	.
1G	.	.	.
.	.	.	4cc\
.	2d\	1g\	1b\
=40-	=40-	=40-	=40-
1d	0d	.	.
.	.	4f#X\	4a/
.	.	4e/	4g/
1D	.	4f#X\	2a/
.	.	2g\	.
.	.	.	2a/
.	.	4f#X\	.
=41-	=41-	=41-	=41-
00G	00d	00g	00b
==	==	==	==
*-	*-	*-	*-
!!!system-decoration: g1
!!!RDF**kern: l = terminal long
!!!RDF**kern: > = above
!!!RDF**kern: < = below
!!!ENC: Filip Voros
!!!END: 2021-12-17
!!!EED: Jędrzej Mróz
!!!EEV: 2021-12-22
!!!YEC: Copyright 2022 Narodowy Instytut Fryderyka Chopina (https://polishscores.org)
!!!YEM: License CC-BY-4.0 (https://creativecommons.org/licenses/by/4.0)
